!!!OTL-incipit: ES WAR EIN STOLZES MUELLERWEIB
!!!ARE: Europa, Mitteleuropa, Deutschland, Westerwald
!!!SCT: Z0172
!!!TXL: @@DE
!!!YEM: Copyright 1995, estate of Helmut Schaffrath.
**kern	**text
*ICvox	*
*M2/4	*
*k[f#]	*
*G:	*
!LO:TX:a:t=Weſterwald.	!
{8d	Es
=1	=1
8d	war
8e	ein
8f#	ſtol-
8g	-ʒes
=2	=2
8a	Mül-
8b/	-ler-
16ccL	-weib,
16bJ}	.
{8a	das
=3	=3
8g	war
8g	ſo
16f#XL	ſchön
16gJ	.
16aL	und
16f#J	.
=4	=4
4g	fein.
8r}	.
{16f#L	Sie
16gJ	.
=5	=5
8a	konn-
8a	-te
16aL	die
16bJ	.
16cc#L	Säcke
16ddJ	.
=6	=6
4a	tra-
16aL	-gen
16gJ}	.
{16f#L	von
16gJ	der
=7	=7
8a	Müh-
16aL	-le
16bJ	.
16ccnL	bis
16bJ	.
8a	ʒum
=8	=8
4g	Wa-
16gL	-gen,
16f#J}	.
{16eL	die
16f#J	.
=9	=9
8d	ſie
8e	ʒu
8f#	tra-
8g	-gen
=10	=10
(<8a	hat
8b	.
8cc)}	.
{16bL	die
16aJ	.
=11	=11
8g	ſie
8g	ʒu
(16f#L	tra-
16gJ)	.
(16aL	-gen
16f#J)	.
=12	=12
4g	hat.
8r}	.
==	==
!!!AGN: Erzaehlung, lustige Romanze
!!!ONB: ESAC (Essen Associative Code) Database: ZUCCAL
!!!AMT: simple duple
!!!AIN: vox
!!!EED: Helmut Schaffrath
!!!EEV: 1.0
!!!GTL: II. Erzahlungen, lustige Romanzen, Kinder-Lieder und episch-lyrische Volks-Lieder.
!!!URL-scan: https://www.digitale-sammlungen.de/de/view/bsb11160571?page=322
!!!ENC: Anna Maria Matuszewska
!!!EEV: 2025/01/28
*-	*-
